humanity-icon-theme/Humanity/actions/16/media-skip-forward.svg

<?xml version="1.0" encoding="UTF-8" standalone="no"?>
<!-- Created with Inkscape (http://www.inkscape.org/) -->

<svg
   xmlns:svg="http://www.w3.org/2000/svg"
   xmlns="http://www.w3.org/2000/svg"
   xmlns:xlink="http://www.w3.org/1999/xlink"
   version="1.1"
   width="16"
   height="16"
   id="svg2415">
  <defs
     id="defs2417">
    <linearGradient
       id="linearGradient2856">
      <stop
         id="stop2858"
         style="stop-color:#eeeeec;stop-opacity:1"
         offset="0" />
      <stop
         id="stop2860"
         style="stop-color:#babdb6;stop-opacity:1"
         offset="0.78130704" />
      <stop
         id="stop2862"
         style="stop-color:#a1a59b;stop-opacity:1"
         offset="1" />
    </linearGradient>
    <linearGradient
       id="linearGradient3703">
      <stop
         id="stop3705"
         style="stop-color:#ffffff;stop-opacity:1"
         offset="0" />
      <stop
         id="stop3707"
         style="stop-color:#ffffff;stop-opacity:0"
         offset="1" />
    </linearGradient>
    <linearGradient
       id="linearGradient3615">
      <stop
         id="stop3617"
         style="stop-color:#eeeeec;stop-opacity:1"
         offset="0" />
      <stop
         id="stop3619"
         style="stop-color:#babdb6;stop-opacity:1"
         offset="0.69580418" />
      <stop
         id="stop3621"
         style="stop-color:#a1a59b;stop-opacity:1"
         offset="1" />
    </linearGradient>
    <linearGradient
       x1="1.3632959"
       y1="5.2996254"
       x2="4.5011549"
       y2="11.561798"
       id="linearGradient3689"
       xlink:href="#linearGradient2856"
       gradientUnits="userSpaceOnUse"
       gradientTransform="translate(-0.02900493,0)" />
    <linearGradient
       x1="7.303371"
       y1="5.1797752"
       x2="10.501154"
       y2="11.681648"
       id="linearGradient3713"
       xlink:href="#linearGradient3615"
       gradientUnits="userSpaceOnUse"
       gradientTransform="translate(0.97065307,0)" />
    <linearGradient
       x1="8"
       y1="4"
       x2="8"
       y2="13"
       id="linearGradient3721"
       xlink:href="#linearGradient3703"
       gradientUnits="userSpaceOnUse"
       gradientTransform="translate(0.97065307,0)" />
    <linearGradient
       x1="8"
       y1="4"
       x2="8"
       y2="13"
       id="linearGradient3725"
       xlink:href="#linearGradient3703"
       gradientUnits="userSpaceOnUse"
       gradientTransform="translate(-6.0290049,0)" />
    <linearGradient
       id="linearGradient3615-1">
      <stop
         id="stop3617-0"
         style="stop-color:#eeeeec;stop-opacity:1"
         offset="0" />
      <stop
         id="stop3619-4"
         style="stop-color:#babdb6;stop-opacity:1"
         offset="0.69580418" />
      <stop
         id="stop3621-2"
         style="stop-color:#a1a59b;stop-opacity:1"
         offset="1" />
    </linearGradient>
    <linearGradient
       x1="14.977528"
       y1="5.9682674"
       x2="15.138577"
       y2="15.736058"
       id="linearGradient3709"
       xlink:href="#linearGradient3703-2"
       gradientUnits="userSpaceOnUse"
       gradientTransform="matrix(1,0,0,0.88732158,0.99932307,1.3653633)" />
    <linearGradient
       id="linearGradient3703-2">
      <stop
         id="stop3705-2"
         style="stop-color:#ffffff;stop-opacity:1"
         offset="0" />
      <stop
         id="stop3707-0"
         style="stop-color:#ffffff;stop-opacity:0"
         offset="1" />
    </linearGradient>
    <linearGradient
       x1="3.5"
       y1="-14.5"
       x2="12.5"
       y2="-13.5"
       id="linearGradient2860"
       xlink:href="#linearGradient3615-1"
       gradientUnits="userSpaceOnUse"
       gradientTransform="translate(0.48504442,-0.49932307)" />
  </defs>
  <path
     d="m 0.47364607,3.502 0,9.995139 L 8.4706534,8.5 0.47364607,3.502 z"
     id="path5566"
     style="fill:url(#linearGradient3689);fill-opacity:1;fill-rule:nonzero;stroke:#888a86;stroke-width:1.0053153;stroke-linecap:butt;stroke-linejoin:round;stroke-miterlimit:4;stroke-opacity:1;stroke-dasharray:none;stroke-dashoffset:0;marker:none;visibility:visible;display:block;overflow:visible;enable-background:accumulate" />
  <path
     d="m 7.4733034,3.502 0,9.995139 L 15.470311,8.5 7.4733034,3.502 z"
     id="path2854"
     style="fill:url(#linearGradient3713);fill-opacity:1;fill-rule:nonzero;stroke:#888a86;stroke-width:1.0053153;stroke-linecap:butt;stroke-linejoin:round;stroke-miterlimit:4;stroke-opacity:1;stroke-dasharray:none;stroke-dashoffset:0;marker:none;visibility:visible;display:block;overflow:visible;enable-background:accumulate" />
  <path
     d="m 1.4709951,5.4375 0,6.125 L 6.7526534,8.5 1.4709951,5.4375 z"
     id="path3723"
     style="opacity:0.5;fill:none;stroke:url(#linearGradient3725);stroke-width:1.0053153;stroke-linecap:butt;stroke-linejoin:round;stroke-miterlimit:4;stroke-opacity:1;stroke-dasharray:none;stroke-dashoffset:0;marker:none;visibility:visible;display:block;overflow:visible;enable-background:accumulate" />
  <rect
     width="10"
     height="2"
     rx="0"
     ry="0"
     x="3.4850445"
     y="-15.499323"
     transform="matrix(0,1,-1,0,0,0)"
     id="rect4595"
     style="fill:url(#linearGradient2860);fill-opacity:1;fill-rule:nonzero;stroke:#888a86;stroke-width:1;stroke-linecap:butt;stroke-linejoin:round;stroke-miterlimit:4;stroke-opacity:1;stroke-dasharray:none;stroke-dashoffset:0;marker:none;visibility:visible;display:block;overflow:visible;enable-background:accumulate" />
  <path
     d="m 14.499323,4.4709884 0,7.9960466"
     id="rect5598"
     style="opacity:0.3;fill:none;stroke:url(#linearGradient3709);stroke-width:0.94197685;stroke-linecap:square;stroke-linejoin:miter;stroke-miterlimit:4;stroke-opacity:1;stroke-dasharray:none;stroke-dashoffset:0;marker:none;visibility:visible;display:block;overflow:visible;enable-background:accumulate" />
  <path
     d="m 8.4706534,5.4375 0,6.125 L 13.752311,8.5 8.4706534,5.4375 z"
     id="path3711"
     style="opacity:0.5;fill:none;stroke:url(#linearGradient3721);stroke-width:1.0053153;stroke-linecap:butt;stroke-linejoin:round;stroke-miterlimit:4;stroke-opacity:1;stroke-dasharray:none;stroke-dashoffset:0;marker:none;visibility:visible;display:block;overflow:visible;enable-background:accumulate" />
</svg>

<?xml version="1.0" encoding="UTF-8" standalone="no"?>
<!-- Created with Inkscape (http://www.inkscape.org/) -->
<svg id="svg2415" xmlns="http://www.w3.org/2000/svg" height="16" width="16" version="1.1" xmlns:xlink="http://www.w3.org/1999/xlink">
 <defs id="defs2417">
  <linearGradient id="linearGradient3703">
   <stop id="stop3705" style="stop-color:#fff" offset="0"/>
   <stop id="stop3707" style="stop-color:#fff;stop-opacity:0" offset="1"/>
  </linearGradient>
  <linearGradient id="linearGradient3689" y2="11.562" gradientUnits="userSpaceOnUse" x2="4.5012" gradientTransform="translate(-.029005)" y1="5.2996" x1="1.3633">
   <stop id="stop2858" style="stop-color:#eeeeec" offset="0"/>
   <stop id="stop2860" style="stop-color:#babdb6" offset=".78131"/>
   <stop id="stop2862" style="stop-color:#a1a59b" offset="1"/>
  </linearGradient>
  <linearGradient id="linearGradient3713" y2="11.682" gradientUnits="userSpaceOnUse" x2="10.501" gradientTransform="translate(.97065)" y1="5.1798" x1="7.3034">
   <stop id="stop3617" style="stop-color:#eeeeec" offset="0"/>
   <stop id="stop3619" style="stop-color:#babdb6" offset=".69580"/>
   <stop id="stop3621" style="stop-color:#a1a59b" offset="1"/>
  </linearGradient>
  <linearGradient id="linearGradient3721" y2="13" xlink:href="#linearGradient3703" gradientUnits="userSpaceOnUse" x2="8" gradientTransform="translate(.97065)" y1="4" x1="8"/>
  <linearGradient id="linearGradient3725" y2="13" xlink:href="#linearGradient3703" gradientUnits="userSpaceOnUse" x2="8" gradientTransform="translate(-6.029)" y1="4" x1="8"/>
  <linearGradient id="linearGradient3709" y2="15.736" gradientUnits="userSpaceOnUse" x2="15.139" gradientTransform="matrix(1 0 0 .88732 .99932 1.3654)" y1="5.9683" x1="14.978">
   <stop id="stop3705-2" style="stop-color:#fff" offset="0"/>
   <stop id="stop3707-0" style="stop-color:#fff;stop-opacity:0" offset="1"/>
  </linearGradient>
  <linearGradient id="linearGradient2860" y2="-13.5" gradientUnits="userSpaceOnUse" x2="12.5" gradientTransform="translate(.48504 -.49932)" y1="-14.5" x1="3.5">
   <stop id="stop3617-0" style="stop-color:#eeeeec" offset="0"/>
   <stop id="stop3619-4" style="stop-color:#babdb6" offset=".69580"/>
   <stop id="stop3621-2" style="stop-color:#a1a59b" offset="1"/>
  </linearGradient>
 </defs>
 <path id="path5566" style="stroke-linejoin:round;stroke-width:1.0053;stroke:#888a86;display:block;fill:url(#linearGradient3689)" d="m0.47365 3.502v9.9951l7.997-4.997-7.997-4.998z"/>
 <path id="path2854" style="stroke-linejoin:round;stroke-width:1.0053;stroke:#888a86;display:block;fill:url(#linearGradient3713)" d="m7.4733 3.502v9.9951l7.9967-4.997-7.9967-4.998z"/>
 <path id="path3723" style="opacity:.5;stroke-linejoin:round;stroke-width:1.0053;stroke:url(#linearGradient3725);display:block;fill:none" d="m1.471 5.4375v6.125l5.2817-3.062-5.2817-3.0625z"/>
 <rect id="rect4595" style="stroke-linejoin:round;stroke:#888a86;display:block;fill:url(#linearGradient2860)" transform="rotate(90)" rx="0" ry="0" height="2" width="10" y="-15.499" x="3.485"/>
 <path id="rect5598" style="opacity:.3;stroke-width:.94198;stroke:url(#linearGradient3709);stroke-linecap:square;display:block;fill:none" d="m14.499 4.471v7.996"/>
 <path id="path3711" style="opacity:.5;stroke-linejoin:round;stroke-width:1.0053;stroke:url(#linearGradient3721);display:block;fill:none" d="m8.4707 5.4375v6.125l5.2813-3.062-5.2813-3.0625z"/>
</svg>
